icons/phone-outline.svg

<svg xmlns="http://www.w3.org/2000/svg" width="24" height="24" viewBox="0 0 24 24">
  <path d="M4.53698851,2.72557174 L3.83076596,3.42699846 C3.70163543,3.55693429 3.5602189,3.70023139 3.37131846,3.8921175 C0.494771099,6.77065374 2.37931504,12.7263137 6.8307923,17.1829136 C11.2855072,21.6427548 17.2407102,23.5228838 20.1400025,20.6218861 L20.570887,20.2018152 C20.8442186,19.931959 21.088422,19.6837149 21.2958246,19.4644644 C22.2284135,18.4786001 22.2805527,16.8131804 21.2899358,15.7837088 L21.110318,15.6059299 C20.5516933,15.0758744 19.5634863,14.3156828 17.9654826,13.1679269 C17.2352865,12.6434682 16.244883,12.6706803 15.5445866,13.2344428 L15.426546,13.3363969 C15.3628112,13.3939871 15.2827931,13.469121 15.1814775,13.5664955 L14.1170267,14.6150514 C14.1105712,14.6214962 14.0850826,14.6242715 13.7344146,14.4889275 C13.0831518,14.2375657 12.2239218,13.6144571 11.312837,12.7023239 C10.4004767,11.7889137 9.77767327,10.9286735 9.52648794,10.27686 L9.41567483,9.97445115 C9.39350036,9.90669162 9.39497583,9.89796778 9.39629956,9.89664393 L10.4199374,8.85068039 C10.5977575,8.66517843 10.7359099,8.51769267 10.7791546,8.46399551 C11.3429879,7.76388014 11.3704468,6.77360782 10.8462765,6.04332358 L10.4293986,5.46642827 C9.42669208,4.08910704 8.7175032,3.19597204 8.24229283,2.72646239 C7.23618917,1.73242815 5.4925235,1.78389067 4.53698851,2.72557174 Z M5.94083773,4.15007424 C6.12215977,3.97138112 6.61606454,3.93125578 6.83663864,4.14918383 C7.26374379,4.57116534 8.0560132,5.58577828 9.22148532,7.20953687 L8.9193028,7.52688062 C8.59802983,7.85807389 8.11994869,8.34455596 7.98202595,8.48249042 C6.67876024,9.78586681 7.78866791,12.0041544 9.89781042,14.115724 C12.005507,16.2258461 14.2242515,17.3371782 15.5270779,16.0334151 L16.7087044,14.8735326 C16.7524111,14.8325519 16.7824273,14.8054901 16.798753,14.7923474 L17.7669123,15.4957586 C18.862679,16.302969 19.5350742,16.8444467 19.8487876,17.1704647 C20.0873638,17.4183985 20.0502994,17.8708043 19.842899,18.0900528 L19.5272955,18.4166655 C19.297867,18.6498349 19.0304441,18.9137872 18.7253732,19.2080884 C16.9071666,21.0273645 12.1169356,19.645085 8.24581889,15.7695136 C4.37348858,11.892727 2.99210231,7.10097114 4.79657679,5.29519935 L5.62858278,4.45839115 C5.7193298,4.36851128 5.81993878,4.26922033 5.94083773,4.15007424 Z"/>
</svg>

<svg xmlns="http://www.w3.org/2000/svg" viewBox="0 0 24 24">
  <path d="m4.54 2.73-.7.7-.47.46c-2.88 2.88-1 8.84 3.46 13.3 4.46 4.45 10.41 6.33 13.31 3.43l.43-.42.73-.74a2.7 2.7 0 0 0-.01-3.68l-.18-.17a33.72 33.72 0 0 0-3.14-2.44 2 2 0 0 0-2.43.06l-.11.1-.25.24-1.06 1.05-.39-.13a7.9 7.9 0 0 1-2.42-1.79 7.91 7.91 0 0 1-1.78-2.42l-.11-.3c-.03-.07-.03-.08-.02-.08l1.02-1.05c.18-.18.32-.33.36-.39a2 2 0 0 0 .07-2.42l-.42-.57c-1-1.38-1.71-2.27-2.19-2.74-1-1-2.75-.95-3.7 0zm1.4 1.42c.18-.18.68-.22.9 0 .42.42 1.22 1.44 2.38 3.06l-.3.32-.94.95c-1.3 1.3-.2 3.52 1.92 5.64 2.1 2.1 4.32 3.22 5.63 1.91l1.18-1.16.09-.08.97.7c1.1.81 1.77 1.35 2.08 1.68.24.25.2.7 0 .92l-.32.33-.8.79c-1.82 1.82-6.61.44-10.48-3.44C4.37 11.89 2.99 7.1 4.8 5.3l.83-.84.31-.31z"/>
</svg>
